X:1
T:The Twa Sisters
M:6/8
L:1/8
K:C
 E| GGG GAB| GGG D2 D| G3- G3| G3- G2 D| G2 G GAB| G2 G D2 D| B2 B D2 D|\
